X: 10331
T: SWISS WALTZ
C:
%R: waltz
B: Elias Howe "The Musician's Companion" Part 1 1842 p.33 #1
S: http://imslp.org/wiki/The_Musician's_Companion_(Howe,_Elias)
Z: 2015 John Chambers <jc:trillian.mit.edu>
M: 3/8
L: 1/16
K: D
% - - - - - - - - - - - - - - - - - - - - - - - - -
V: 1 staves=3
A>f |\
d2d2 A>f | d2d2 A>f | e2a2a2 | f2d2 A>f |\
d2d2 A>f | d2d2 A>f | e2a2a2 | d4 :|
|: e>f |\
g>fefge | f>edefd | e>dcdec | d>efgaf |\
g>fefge | f>edefd | e>dcdec | d4 :|
% - - - - - - - - - - - - - - - - - - - - - - - - -
V: 2
z2 |\
F2F2z2 | F2F2z2 | c2c2c2 | d2F2z2 |\
F2F2z2 | F2F2z2 | c2c2c2 | d4 :|
|: c>d |\
e>dcdec | d>AFGAF | G>FEFGE | F>Adefd |\
e>dcdec | d>AFGAF | G>FEFGE | F4 :|
% - - - - - - - - - - - - - - - - - - - - - - - - -
V: 3 clef=bass middle=d
z2 |\
d2d2z2 | d2d2z2 | A2A2A2 | d4z2 |\
d2d2z2 | d2d2z2 | A2A2A2 | d4 :|
|: z2 |\
A2A2A2 | d2d2d2 | A2A2A2 | d2d2d2 |\
A2A2A2 | d2d2d2 | A2A2A2 | d4 :|
% - - - - - - - - - - - - - - - - - - - - - - - - -
